src/lib/packages/icons/src/assets/filled/receipt-percent-alt.svg

<svg width="24" height="24" viewBox="0 0 24 24" fill="none" xmlns="http://www.w3.org/2000/svg">
<path d="M18.4 4.579L17.041 5.59798C16.444 6.04598 15.608 5.986 15.08 5.459L13.061 3.43999C12.475 2.85399 11.5249 2.85399 10.9399 3.43999L8.92102 5.459C8.39302 5.987 7.55696 6.04598 6.95996 5.59798L5.60095 4.579C4.94195 4.085 4.00098 4.55498 4.00098 5.37898V18.622C4.00098 19.446 4.94195 19.916 5.60095 19.422L6.95996 18.403C7.55696 17.955 8.39302 18.015 8.92102 18.542L10.9399 20.561C11.5259 21.147 12.476 21.147 13.061 20.561L15.08 18.542C15.608 18.014 16.444 17.955 17.041 18.403L18.4 19.422C19.059 19.916 20 19.446 20 18.622V5.37898C20 4.55498 19.059 4.084 18.4 4.579ZM9.51001 8.49999H9.52002C10.073 8.49999 10.52 8.94799 10.52 9.49999C10.52 10.052 10.073 10.5 9.52002 10.5C8.96802 10.5 8.51501 10.052 8.51501 9.49999C8.51501 8.94799 8.95801 8.49999 9.51001 8.49999ZM10.03 15.03C9.88403 15.176 9.692 15.25 9.5 15.25C9.308 15.25 9.11597 15.177 8.96997 15.03C8.67697 14.737 8.67697 14.262 8.96997 13.969L13.97 8.96898C14.263 8.67598 14.738 8.67598 15.031 8.96898C15.324 9.26198 15.324 9.73698 15.031 10.03L10.03 15.03ZM14.52 15.5C13.968 15.5 13.515 15.052 13.515 14.5C13.515 13.948 13.958 13.5 14.51 13.5H14.52C15.073 13.5 15.52 13.948 15.52 14.5C15.52 15.052 15.072 15.5 14.52 15.5Z" fill="currentColor"/>
</svg>

<svg xmlns="http://www.w3.org/2000/svg" width="24" height="24" fill="none"><path fill="currentColor" d="m18.4 4.579-1.359 1.019a1.501 1.501 0 0 1-1.961-.139L13.061 3.44a1.5 1.5 0 0 0-2.121 0L8.92 5.459a1.5 1.5 0 0 1-1.961.139L5.601 4.579a1 1 0 0 0-1.6.8v13.243a1 1 0 0 0 1.6.8l1.359-1.019a1.501 1.501 0 0 1 1.961.139l2.019 2.019a1.5 1.5 0 0 0 2.121 0l2.019-2.019a1.5 1.5 0 0 1 1.961-.139l1.359 1.019a1 1 0 0 0 1.6-.8V5.379a1 1 0 0 0-1.6-.8ZM9.51 8.5h.01a1 1 0 1 1 0 2 1.005 1.005 0 0 1-1.005-1c0-.552.443-1 .995-1Zm.52 6.53a.748.748 0 0 1-1.06 0 .75.75 0 0 1 0-1.061l5-5a.75.75 0 1 1 1.061 1.061l-5.001 5Zm4.49.47a1.005 1.005 0 0 1-1.005-1c0-.552.443-1 .995-1h.01a1 1 0 1 1 0 2Z"/></svg>
